/* XPM */
static const char * SDL_icon_xpm[] = {
"64 64 244 2",
"  	c None",
"##	c #0A84EC",
"#$	c #53A45E",
"#%	c #53AA4A",
"#&	c #54AC47",
"#*	c #54AC4E",
"#+	c #55A94E",
"#-	c #568EDE",
"#.	c #0A65D5",
"#/	c #5BB54A",
"#0	c #4CA54C",
"#1	c #4E855F",
"#2	c #4EA749",
"#3	c #4FA84A",
"#4	c #509FF3",
"#5	c #50A54A",
"#6	c #50A94E",
"#7	c #50AA55",
"#8	c #51AA48",
"#9	c #5293E3",
"#:	c #57B053",
"#;	c #58AB44",
"#<	c #5993E1",
"#=	c #55AF46",
"#>	c #59B04F",
"#?	c #5AB143",
"#@	c #5387D6",
"#A	c #2B7872",
"#B	c #2B78AB",
"#C	c #2C837F",
"#D	c #2E8580",
"#E	c #2F387D",
"#F	c #2F87A1",
"#G	c #301636",
"#H	c #3078BD",
"#I	c #3165BA",
"#J	c #36012E",
"#K	c #37968D",
"#L	c #3883E1",
"#M	c #390000",
"#N	c #398F4E",
"#O	c #3A94DE",
"#P	c #3DA2E6",
"#Q	c #3E965D",
"#R	c #439B42",
"#S	c #449B50",
"#T	c #45A052",
"#U	c #4684D9",
"#V	c #4AAA95",
"#W	c #4BA35A",
"#X	c #4BD8C6",
"#Y	c #4C0200",
"#Z	c #4CA24A",
"#^	c #5E9FEC",
"#a	c #0B60D1",
"#b	c #0B78DA",
"#c	c #0D54C6",
"#d	c #0E57B5",
"#e	c #0E6CDE",
"#f	c #0F8FEF",
"#g	c #113BA3",
"#h	c #1263CF",
"#i	c #135BCC",
"#j	c #13637E",
"#k	c #144EAC",
"#l	c #145B82",
"#m	c #1464AD",
"#n	c #156DA8",
"#o	c #1675A6",
"#p	c #1777D5",
"#q	c #1B64CE",
"#r	c #1B7DA3",
"#s	c #1C85EC",
"#t	c #1E6ED7",
"#u	c #207477",
"#v	c #2084A9",
"#w	c #237A7B",
"#x	c #241D81",
"#y	c #24828A",
"#z	c #2693D3",
"#|	c #5D0603",
"#~	c #5DAA77",
".#	c #00007F",
".$	c #0375E9",
".%	c #040B6D",
".&	c #0446A5",
".*	c #0450B5",
".+	c #045AA9",
".-	c #05085B",
"./	c #072484",
".0	c #0347C0",
".1	c #034BB1",
".2	c #034CBC",
".3	c #034FBC",
".4	c #0351C1",
".5	c #0352A4",
".6	c #0359C6",
".7	c #035DCE",
".8	c #0364D7",
".9	c #036DDF",
".:	c #050D92",
".;	c #05339D",
".<	c #053DB3",
".=	c #047BE1",
".>	c #056BC3",
".?	c #061564",
".@	c #036EEA",
".A	c #0154CB",
".B	c #0157CE",
".C	c #0158D8",
".D	c #0159CD",
".E	c #015BD3",
".F	c #015BDA",
".G	c #015FE4",
".H	c #0160DA",
".I	c #0180EA",
".J	c #0247B5",
".K	c #024BB8",
".L	c #024DBD",
".M	c #024DC1",
".N	c #024FC1",
".O	c #0252BC",
".P	c #025ED5",
".Q	c #0262D7",
".R	c #0263DD",
".S	c #0265C8",
".T	c #0266DD",
".U	c #0267E4",
".V	c #026AE6",
".W	c #0272E6",
".X	c #032796",
".Y	c #0342AE",
".Z	c #0346B2",
".^	c #0A5BCA",
".a	c #00008B",
".b	c #0000BE",
".c	c #001F91",
".d	c #00279F",
".e	c #0031A7",
".f	c #003AA0",
".g	c #003BBC",
".h	c #003FBF",
".i	c #00418B",
".j	c #0042B6",
".k	c #0043B0",
".l	c #0046BD",
".m	c #0046BF",
".n	c #0046C4",
".o	c #0047B8",
".p	c #0047D5",
".q	c #004BBC",
".r	c #004BC1",
".s	c #004CC0",
".t	c #004ED4",
".u	c #0054DE",
".v	c #014BBD",
".w	c #014DC7",
".x	c #014EC1",
".y	c #0151C7",
".z	c #0153C7",
".|	c #0950AE",
".~	c #096DDC",
"a#	c #5FB748",
"a$	c #FBAF03",
"a%	c #FBB103",
"a&	c #FBB105",
"a*	c #FBB205",
"a+	c #FBB404",
"a-	c #FCAF04",
"a.	c #5FB556",
"a/	c #FE9301",
"a0	c #F7A602",
"a1	c #F7B10A",
"a2	c #F8AC04",
"a3	c #F8AE07",
"a4	c #F99F01",
"a5	c #F9B003",
"a6	c #FAAC02",
"a7	c #FAAF05",
"a8	c #FAC202",
"a9	c #FAD00A",
"a:	c #FCE003",
"a;	c #FDA802",
"a<	c #FDCE02",
"a=	c #FCAC03",
"a>	c #FDECC7",
"a?	c #FDF503",
"a@	c #FBAA02",
"aA	c #AD9D44",
"aB	c #ADCDF6",
"aC	c #B44F00",
"aD	c #B64601",
"aE	c #B8DFFE",
"aF	c #BB8000",
"aG	c #BF5101",
"aH	c #BFCFD6",
"aI	c #C65B02",
"aJ	c #C66103",
"aK	c #CE5B00",
"aL	c #CE6201",
"aM	c #CEC553",
"aN	c #D56803",
"aO	c #D6E7FD",
"aP	c #E36C02",
"aQ	c #E3801E",
"aR	c #E4A413",
"aS	c #EA7F02",
"aT	c #EA9303",
"aU	c #EEDF2A",
"aV	c #EF7E00",
"aW	c #F1DE08",
"aX	c #F5ED07",
"aY	c #F69605",
"aZ	c #F6C60D",
"a^	c #FEF500",
"aa	c #60B196",
"ab	c #629599",
"ac	c #63525F",
"ad	c #65BB4D",
"ae	c #669DE6",
"af	c #66B795",
"ag	c #68615B",
"ah	c #6EBC8B",
"ai	c #710506",
"aj	c #72A0DF",
"ak	c #77A9EB",
"al	c #793A03",
"am	c #7AC8AD",
"an	c #7B1A01",
"ao	c #8BB0E0",
"ap	c #902802",
"aq	c #90CC77",
"ar	c #91BEF5",
"as	c #936E48",
"at	c #A0C2DF",
"au	c #A0CBFA",
"av	c #A14205",
"aw	c #A15201",
"ax	c #A2C4F2",
"ay	c #A8D8BA",
"az	c #AA7D41",
"a|	c #FEA202",
"a~	c #FEDF00",
"b.	c #FFFF00",
"                                                                                                                                ",
"                                                                                                                                ",
"                                                                                                                                ",
"                                                                                                                                ",
"                                                                                                                                ",
"                                                                                                                                ",
"                                                        .e  #b#b###b  .w                                          aT            ",
"                                                      #g.0#p#s#s#s#s#e#h#k                                      aSa|a|          ",
"                                              .d#UaEararararaEaOaOaBajaOar#U#4#d.#                      #YaXa?a?a?aXaWaL        ",
"                                          .u.t.5#H#^#X#Xak#PakaEakaoaxaEar#9#O#B#l.n.n            #|  aFawaTaTaTa<a:aWaJaG      ",
"                                        #..9.~#F#v#v#~aa#X#b#s#4.t#9aBarak#9#F#K#K.>.7.2.c      #|anaXa<a/aDavaDa5a<a:aIaKaL    ",
"                                  .g.t#.#~#:#W.V#Faqaqaq#~#K#v.~.8#.#e#a.P.H.C#v#~#W#N#A.D.C#Ia<a8a4aLaKaGan#|  aXa<aYaIaIaL    ",
"                                .8#w#n.+#W#:#~#Vafaq#V#K#F#$#v.G.Q.H.H.F#n#y.C#r#W#%#Z#Q#D#n#a#~azaVaGaDaD      a?a<aYaJaKaL    ",
"                              .7#b#2#A#l#Q#~ahaqaqaq#o.>.8#%#y.G.Q.H.Q.G#y#=.S#y#S#6#*#+#;#D.7.pacaI        apavaXa<aYaLaIaI    ",
"                            .G#r#Z#6#0#7aqaqaqaqaqaq#b.=#z#N#r.I.8.T.T.u.+#u#o#D#?#+#+#%#;#5#Q#k#c#h      #MasaOa1a4aSaLap#|    ",
"                          .j.G#y#;#6#*a.aqaqaqaqaqa.#K#v###S#y.$.T.P.6#F#K#W#Q#D#C#0#&#+#y#Q#0.|.A.Q.T    aFaMa>a&a4aVaNav      ",
"                        .O.8.G#y#?#6a.a.aqaqaqad#>#Z#?#F.$#~#F.8.U.B#dahaqah#?#w.r#S#0#W.A#y#7.O.6.>.$#h  b.a<a4a+aYaVaP        ",
"                      .&.3.7#f#F#?#0a.aq#:#*#*#0#%#7.S#r#Q.I.8.L.y.s.v.6#a.>#u#o##.V#n#w.u#r#$adahaj.u#~a^a0a2a7a+a|a/          ",
"                      .O.~.=.>#K#=#3a.a.#3#5#+a.a.#7.$.>#o.R.B.s.q.z.P.y.P.9#y#o.~#F#r.+#y#F#v#Kaaam#~aMa?a2a@a6a|aNav          ",
"                    .b.Q###f#j#A#>#%#3#2#3#5#+aqa.#W#f.V.w.M.M.y.q.E.V.z.P.9#K#v.7#:#y.7#?#K.9.+#Kaqa~a~aXa5a6a2a/av#Y          ",
"                    .n#f.$.B#f#V#?#*#%#*#3a.a.a##N#u.O.F.V.A.y.w.v.M.x.x.s.s.9.T.F.C#ya#a##/#$.t#1a9aXa9a=a$a%a%a/aN            ",
"                  .^#e.$#Oae###v#A#*#*#*#%#:#$#D#j#l.D.E.E.z.B.P.x.s.s.x.z.E.G#Lae#9ajam#F#Q#%#1aAa~a9a8a@a+a|aYaV              ",
"                  #e#f#.akaE#..O.+#7#>#*#7#S#Q.w.t.B.V.E.x.z.P.T.N.s.s.x.E.U.u#^aEaBaBar.R#y#;a<a~aXa=a=a$a1aTaN                ",
"                .;.^##aE#^.E.R.S#o#>a##7.~#p#v.*.P.$.@.@.U.A.N.q.x.x.x.N.N.4.H.R#eaBaxajauaMaZaXa9a6a&a&a3a/as#g                ",
"                .^#p#OaEak#t#..S.>#y#Q#N.S#..>.x.B.H.D.R.@.E.P.8.D.z.r.s.s.s.A.A.D#<#U#UaMaUa<a9a8a=a*a;aY#~#B.n                ",
"                ###PaeaEar#^#e.~.>.z#j#N#m.S.R.6.*.*.J.7.@.H.@##.~#a#c#c#c#c.N.2.q.A.A#ma8a~a:a=a=a%a1aYaQ##.@.6                ",
"              .%.G#^aOaEaEaB#f.W.P.8.7.6a.#F.F#$#:#W.9.@.@.x.E.@#^araBaxak#9.x.v.4.G#~aXaXa9a$a%a*a2a4aD#Y.O.D.O.%              ",
"            .?./#s#4araEaEaE#f.I.$.H.B.4#:#W#Ka.a##>#K#v#p.N.y.7#L#9akaxaxar#L#i.*#~aMa<a9a8a=a%a;aYaAag#E#t#..z./.?            ",
"              #g#4#4#PaEaEaB#f#f##.E.y.*#W#/ad#/#/#>a##$#K.O.L.K.l.^#taoaxaxak#L#ka^a<a0a6a$a$a3aYaQ#9#s#s#9#t.E.;              ",
"            .2#i#4#4#PaOar#f#4#p.j.N.w.y#:ada.#R#>ad#R#N#A.A.p.n.M.A#.ak#L.8akaqaWa1a7a%a-a*a2a/aD#|ataBaBaE#9.w.3.Y            ",
"            #c#.#s#P#Pak#4#s#s#h.o.r#m#C#6#>#>#R#Z#>#2#T#Q#D#y#y.3.x.A#L#k#EayaMa<a7a$a$a%a;aYaAagacaBaEaBar#<#t.6.1            ",
"            #c#e.@#f#P#f#s#P.x.q.O.w#w#?#Z#%#>#R#R#R#>#/a#a#a##>.*.v.K.w#EanaUa9a0a&a$a@a3aYaQ#<#4#^aBaBaB#<#-#-.6.1            ",
"            #c#.#f#f###e#L#4.4.q.L.G#D#?a.#+#R#6#Z#R#*#>#>#*ada..*.t.t#MasaOa1a5a&a$a%a7a/as#caj#U#haBaEaE#L#L#L.6.1            ",
"            .2#i.9.W.@.~#t#t.2.q.L.B#n#D#6#>#:#*#2#Z#%#*#*#?#Q#y.w#kacasaMa>a3a6a$a%a4aTas#E.r#L#t#.akarar#q#h#h.O.1            ",
"            .Y.2.z.E.R.R.z.k.3.L.q.K.w.A#N#:ad#&#&#&#%#8#3#=#y.n#cacaJaOaMa4a7a6a0a3aTaJ.O.*.5.O.A#.#t#U#9.N.r.x.1.&            ",
"              .%.D.@.$.m.l.N#i#d.q.L.L.*.5#C#?#*#*#&#%#&#2#N.i.waRa9aXa1a1a&a%a*a=aVas#o#K#$#6a.#y.n.4.4.4.$.Q.J./              ",
"            .-.%.L#t#L#U#@#-ae#H.j.L.q.q.D#n#A#6#&#*#?#Q#w#l#Aasa9a~a<a$a$a7a;aNawag#1#Q#$#:#%#T#y.O.v.A.Q.Q.D.J./.%            ",
"              .%.Y#taeaxaBaBaE#-.Z.4.v.q.G.6.5#7#&#*#=#C.0#caAa~aXa<a;a&a$a0aYav#J.G#va##*#&#6#N#y.>.3.8.$.O.3.K.#              ",
"                .Z.3#haxaBaxaBauar.T.A.K.w#l#u#0#=#6#l.q.AaUaXaWa+a%a&a+a;a/an#G.3.p#Fa.#*#&#3#8#y.u.o.x.D.J.K.K                ",
"                .;.k.4ajaoaoajarau#U#q.l.v.5#j#0#=#7.5#DaqaZa<a8a-a-a6a|aNav#G#g.4.5#C#:#*#%#0#R#A#y#A#n.w.Z.K.K                ",
"                ./.f.2#U#-aj#taeaxaj#H.0.K.4.>#6#;#+#naAa^a3a2a6a-a7a0aYav#J.L.w.1#j#N#=#8#3#Z#R#R#R#;#w.m.Z.Z.Y                ",
"                .-./.N.^#t#-.1#HaeaBae#d.B.3.5#7alaiaOa>a0a*a%a%a+a|a/aHataj#h.x.1#7#&#%#R#N#N#N#R#0#=#u.g.O.X.-                ",
"                  ./.e.q#i#q.k#d#Har#U.6#L#q.*aAaAaza>aUa@a-a%a5a|azag#@#U#L#c.v.1#Q#S#R#S#R#R#R#Z#0#w.+.j.K.X                  ",
"                    .X.Y.k.k.J.k.k#9#t.Maj#U#ma<a>aOa6a@a$a-a2a0aSag.p.j.j.j.o.o.*#y#N#R#0#5#2#8#Z#Q.1.o.J.Y                    ",
"                    .#.Y.3.w.k.Y.k.j.l.x.p#1aWaXa9a1a&a*a%a+a/aP#k.1.K.J.J.2.T.V.9.M#C#?#8#3#5#?#A.&#?#C.h.c.%                  ",
"                  alas./.f.2.4.K.k#t#E#G#~aMa~a<a8a@a%a;a4a/azac.6.B.B.B.y.w.D.7.7.n#C#?#%#%#5#N#j.&#C#l.X.%                    ",
"                #YaFb..?./.1.^.4#kajacaia^a^a:a=a@a7a3aYaSaPac.p#..9.9.@#e#a.2.o.J.O#C#?#6#%#Z#j#l.&.l.X.%                      ",
"                aXaTaD#|#E.y.o#t#-aZaWaXa1a3a*a$a*a5a|aD#|#k#..$.T#4auaraBax.7.m.|#0#%#%#3#=#8.5.Z.Z.z.1                        ",
"              apa<aTaD  .-./#GagaMa9a<a9a5a6a$a+a|aTasagag.6.U.$.U#s#4ararao#L#t.6#5#;#3#=#Q#w.1.o.J.X                          ",
"            anava0aSaD    #G#|aFb.a9a+a4a$a2a0a3aTaN.l#r#~.~.U.U.T.R.U#^#<#-ae#L#b#T#Z#S#%#w.g.Z.o.Z.-                          ",
"              a:aDan#Y#MawaZaOaMa0a3a$a%a+a;a/aGac#caBab#j.Q.R.H.U.U.V.@.@.W.@#v#$#?#A.i#n.+.K.m.f                              ",
"            aRa?aTaFaFasaAa8a>aUa@a7a;aYaYaLavac#E.r#@#@ab#<#^#4.T.T.V.V.R.E.C#y#W#A#l.Y.|.Y.;.<                                ",
"          #YaFb.a?a^b.aOa>a4a0a;a6a5aYaSaNap#J.j.r.|.o#@aBaBaBaB#t.T.U.9.D.K.m#j#N.e.<.J.o.d.%                                  ",
"          #YaFb.a?a:a<a1a-a-aYa/a/a|aIai#x.;.|.0#@axaB#@.jataBaBaB#@.<.o.o.K.q.3.*.*.Y.d.a                                      ",
"            awaFaTaTaTaSaSaSaPaPaNa/  #|.:.e.g.e#I#@#@#U#Iaoaj#-ao#-#q#H#i.o.L.j.e.<.e                                          ",
"              aiaDaDaDaGaGaGaLaIaC            ./.;.k.e#Iaj#-#q.l#@#<#9#-#I.j.K.f.c                                              ",
"                aLaNaLaPav#Y                        .%.c.d#c.^.B#h.^.w.d.c.%                                                    ",
"                  aL    ap                            .#  .j.2.L.4.s.j  .%                                                      ",
"                                                                                                                                ",
"                                                                                                                                ",
"                                                                                                                                ",
"                                                                                                                                ",
"                                                                                                                                ",
"                                                                                                                                "};
